static/icon-insta.svg

<svg xmlns="http://www.w3.org/2000/svg" width="1in" height="1in" viewBox="0 0 72 72"><defs><style>.cls-1{fill:#b3b3b3;}</style></defs><title>icon-insta</title><path class="cls-1" d="M36 12.39c7.58 0 8.48 0 11.48.17a15.41 15.41 0 0 1 5.27 1 8.88 8.88 0 0 1 3.25 2.14 9.08 9.08 0 0 1 2.14 3.3 16.22 16.22 0 0 1 1 5.35c.13 3 .16 3.95.16 11.64s0 8.6-.16 11.64a16.22 16.22 0 0 1-1 5.35 9.08 9.08 0 0 1-2.14 3.32 8.88 8.88 0 0 1-3.27 2.15 15.41 15.41 0 0 1-5.27 1c-3 .14-3.9.17-11.48.17s-8.48 0-11.48-.17a15.41 15.41 0 0 1-5.27-1 8.88 8.88 0 0 1-3.23-2.15 9.08 9.08 0 0 1-2.14-3.3 16.22 16.22 0 0 1-1-5.35c-.13-3-.16-4-.16-11.64s0-8.6.16-11.64a16.22 16.22 0 0 1 1-5.35 9.08 9.08 0 0 1 2.14-3.32 8.88 8.88 0 0 1 3.27-2.15 15.41 15.41 0 0 1 5.27-1c3-.14 3.9-.17 11.48-.17m-.02-5.18c-7.71 0-8.68 0-11.71.17a20.6 20.6 0 0 0-6.89 1.34 13.87 13.87 0 0 0-5 3.32 14.21 14.21 0 0 0-3.28 5.1 21.59 21.59 0 0 0-1.32 7c-.17 3.07-.2 4.05-.2 11.87s0 8.8.17 11.87a21.59 21.59 0 0 0 1.32 7 14.21 14.21 0 0 0 3.28 5.13 13.87 13.87 0 0 0 5 3.32 20.6 20.6 0 0 0 6.89 1.34c3 .14 4 .17 11.71.17s8.68 0 11.71-.17a20.6 20.6 0 0 0 6.89-1.34 13.87 13.87 0 0 0 5-3.32 14.21 14.21 0 0 0 3.28-5.1 21.59 21.59 0 0 0 1.32-7c.14-3.07.17-4 .17-11.87s0-8.8-.17-11.87a21.59 21.59 0 0 0-1.32-7 14.21 14.21 0 0 0-3.22-5.16 13.87 13.87 0 0 0-5-3.32 20.6 20.6 0 0 0-6.89-1.34c-3-.14-4-.17-11.71-.17zM36 21.21a14.79 14.79 0 1 0 14.58 14.79 14.69 14.69 0 0 0-14.58-14.79zm0 24.39a9.6 9.6 0 1 1 9.47-9.6 9.54 9.54 0 0 1-9.47 9.6z"/><ellipse class="cls-1" cx="51.16" cy="20.63" rx="3.41" ry="3.46"/></svg>

<svg id="Layer_1" data-name="Layer 1" xmlns="http://www.w3.org/2000/svg" width="1in" height="1in" viewBox="0 0 72 72"><defs><style>.cls-1{fill:#b3b3b3;}</style></defs><title>icon-insta</title><path class="cls-1" d="M36,12.39c7.58,0,8.48,0,11.48.17a15.41,15.41,0,0,1,5.27,1A8.88,8.88,0,0,1,56,15.7,9.08,9.08,0,0,1,58.14,19a16.22,16.22,0,0,1,1,5.35c.13,3,.16,3.95.16,11.64s0,8.6-.16,11.64a16.22,16.22,0,0,1-1,5.35A9.08,9.08,0,0,1,56,56.3a8.88,8.88,0,0,1-3.27,2.15,15.41,15.41,0,0,1-5.27,1c-3,.14-3.9.17-11.48.17s-8.48,0-11.48-.17a15.41,15.41,0,0,1-5.27-1A8.88,8.88,0,0,1,16,56.3,9.08,9.08,0,0,1,13.86,53a16.22,16.22,0,0,1-1-5.35c-.13-3-.16-4-.16-11.64s0-8.6.16-11.64a16.22,16.22,0,0,1,1-5.35A9.08,9.08,0,0,1,16,15.7a8.88,8.88,0,0,1,3.27-2.15,15.41,15.41,0,0,1,5.27-1c3-.14,3.9-.17,11.48-.17M36,7.2c-7.71,0-8.68,0-11.71.17A20.6,20.6,0,0,0,17.4,8.71a13.87,13.87,0,0,0-5,3.32,14.21,14.21,0,0,0-3.28,5.1,21.59,21.59,0,0,0-1.32,7C7.63,27.2,7.6,28.18,7.6,36s0,8.8.17,11.87a21.59,21.59,0,0,0,1.32,7A14.21,14.21,0,0,0,12.37,60a13.87,13.87,0,0,0,5,3.32,20.6,20.6,0,0,0,6.89,1.34c3,.14,4,.17,11.71.17s8.68,0,11.71-.17a20.6,20.6,0,0,0,6.89-1.34,13.87,13.87,0,0,0,5-3.32,14.21,14.21,0,0,0,3.28-5.1,21.59,21.59,0,0,0,1.32-7c.14-3.07.17-4,.17-11.87s0-8.8-.17-11.87a21.59,21.59,0,0,0-1.32-7A14.21,14.21,0,0,0,59.63,12a13.87,13.87,0,0,0-5-3.32,20.6,20.6,0,0,0-6.89-1.34c-3-.14-4-.17-11.71-.17Z"/><path class="cls-1" d="M36,21.21A14.79,14.79,0,1,0,50.58,36,14.69,14.69,0,0,0,36,21.21ZM36,45.6A9.6,9.6,0,1,1,45.47,36,9.54,9.54,0,0,1,36,45.6Z"/><ellipse class="cls-1" cx="51.16" cy="20.63" rx="3.41" ry="3.46"/></svg>
